src/img/icons/hide.svg

<svg width="32" height="32" viewBox="0 0 32 32" fill="none" xmlns="http://www.w3.org/2000/svg">
<path d="M19.7747 11.7576C20.3292 12.3119 20.7576 13.0171 21.06 13.8733C21.3626 14.7292 21.448 15.5707 21.3164 16.3978C21.3164 16.6397 21.2372 16.8398 21.0787 16.998C20.9203 17.1565 20.7201 17.2357 20.4782 17.2357C20.2361 17.2357 20.0349 17.1565 19.8746 16.998C19.7141 16.8398 19.6339 16.6397 19.6339 16.3978C19.7889 15.7119 19.771 15.0643 19.5803 14.4551C19.3893 13.846 19.0715 13.3266 18.6268 12.897C18.1972 12.452 17.671 12.1356 17.0483 11.9476C16.4258 11.7598 15.7782 11.7477 15.1055 11.9114C14.8677 11.9144 14.6642 11.8388 14.4951 11.6847C14.3262 11.5307 14.2373 11.3327 14.2284 11.0906C14.2198 10.8485 14.2935 10.643 14.4494 10.4741C14.6051 10.3049 14.802 10.2189 15.04 10.2159C15.8771 10.0668 16.7303 10.1413 17.5997 10.4396C18.4691 10.7377 19.1941 11.177 19.7747 11.7576ZM16.132 7.73196C15.5029 7.73196 14.8785 7.76401 14.2588 7.82812C13.6388 7.89223 13.0257 8.01227 12.4194 8.18823C12.1816 8.25121 11.9548 8.22984 11.739 8.12412C11.5233 8.01818 11.3718 7.85915 11.2845 7.64704C11.1969 7.42607 11.2065 7.20884 11.3131 6.99536C11.42 6.78166 11.5852 6.64332 11.8089 6.58035C12.4871 6.38415 13.1819 6.24138 13.8932 6.15204C14.6043 6.06269 15.3243 6.01802 16.0532 6.01802C18.9864 6.01802 21.6731 6.79883 24.1134 8.36045C26.5537 9.92229 28.434 12.0071 29.7541 14.615C29.8301 14.7696 29.89 14.9234 29.9338 15.0764C29.9779 15.2294 30 15.3927 30 15.5664C30 15.7401 29.9815 15.9035 29.9444 16.0565C29.9074 16.2095 29.851 16.3633 29.7753 16.5178C29.3047 17.4936 28.7389 18.3958 28.078 19.2245C27.4169 20.0531 26.6716 20.8149 25.842 21.5096C25.6617 21.6647 25.4639 21.7223 25.2486 21.6825C25.0334 21.6425 24.8542 21.5312 24.7112 21.3487C24.5721 21.1661 24.5174 20.9682 24.5472 20.755C24.577 20.5417 24.6807 20.3576 24.8585 20.2025C25.6101 19.5698 26.2885 18.8689 26.8937 18.0998C27.4991 17.3307 27.9977 16.4862 28.3894 15.5664C27.262 13.1782 25.5988 11.2753 23.3997 9.85784C21.2006 8.44058 18.778 7.73196 16.132 7.73196ZM15.9659 25.1148C13.0684 25.1148 10.4216 24.3283 8.02538 22.7553C5.62896 21.1821 3.71587 19.1294 2.28611 16.5973C2.18176 16.4393 2.10799 16.276 2.06479 16.1073C2.0216 15.9386 2 15.7584 2 15.5668C2 15.3753 2.0241 15.1968 2.0723 15.031C2.12026 14.8653 2.18915 14.7001 2.27895 14.5355C2.83071 13.5164 3.45488 12.5551 4.15146 11.6519C4.84781 10.7489 5.64692 9.93593 6.54879 9.21298L3.10011 5.76601C2.93574 5.59482 2.85481 5.39419 2.85731 5.16412C2.86004 4.93428 2.94188 4.73273 3.10284 4.5595C3.2788 4.38649 3.48364 4.29999 3.71735 4.29999C3.95106 4.29999 4.15453 4.38649 4.32776 4.5595L27.5392 27.7713C27.6934 27.9277 27.7726 28.1173 27.7769 28.3401C27.7812 28.5629 27.702 28.7632 27.5392 28.941C27.3744 29.1236 27.1754 29.2148 26.9421 29.2148C26.7091 29.2148 26.506 29.1282 26.3327 28.955L21.431 24.118C20.5589 24.4725 19.6653 24.7272 18.7503 24.8822C17.8355 25.0373 16.9073 25.1148 15.9659 25.1148ZM7.73279 10.4198C6.8041 11.0709 5.98259 11.8306 5.26828 12.6988C4.55374 13.5671 3.97379 14.5229 3.52843 15.5664C4.68969 17.9885 6.39931 19.8998 8.65728 21.3002C10.9153 22.7007 13.3945 23.4009 16.0951 23.4009C16.7883 23.4009 17.4726 23.3677 18.1481 23.3013C18.8233 23.2349 19.4745 23.0641 20.1017 22.7888L17.9141 20.5872C17.604 20.7415 17.2859 20.8425 16.9596 20.89C16.6336 20.9375 16.3024 20.9613 15.9659 20.9613C14.4673 20.9613 13.1935 20.4368 12.1445 19.3878C11.0955 18.3389 10.5711 17.0651 10.5711 15.5664C10.5711 15.23 10.5992 14.9002 10.6556 14.5771C10.7122 14.2539 10.8087 13.9342 10.9451 13.6182L7.73279 10.4198Z" fill="#131212"/>
</svg>

<svg xmlns="http://www.w3.org/2000/svg" viewBox="0 0 32 32">
  <path fill="currentColor" d="M19.775 11.758c.554.554.983 1.26 1.285 2.115.303.856.388 1.698.256 2.525a.813.813 0 0 1-.838.838.823.823 0 0 1-.603-.238.807.807 0 0 1-.241-.6c.155-.686.137-1.334-.054-1.943a3.645 3.645 0 0 0-.953-1.558 3.596 3.596 0 0 0-1.579-.95 3.637 3.637 0 0 0-1.942-.036.858.858 0 0 1-.61-.226.81.81 0 0 1-.268-.594.83.83 0 0 1 .221-.617.782.782 0 0 1 .591-.258c.837-.15 1.69-.075 2.56.224.87.298 1.594.737 2.175 1.318Zm-3.643-4.026c-.63 0-1.254.032-1.873.096a10.44 10.44 0 0 0-1.84.36.948.948 0 0 1-.68-.064.902.902 0 0 1-.455-.477.766.766 0 0 1 .03-.652.767.767 0 0 1 .495-.415 13.577 13.577 0 0 1 2.084-.428 17.31 17.31 0 0 1 2.16-.134c2.933 0 5.62.78 8.06 2.342 2.44 1.562 4.321 3.647 5.641 6.255.076.155.136.308.18.461.044.153.066.317.066.49a2.075 2.075 0 0 1-.225.952 14.258 14.258 0 0 1-1.697 2.706 15.955 15.955 0 0 1-2.236 2.286.683.683 0 0 1-.593.172.868.868 0 0 1-.538-.333.772.772 0 0 1-.164-.594.88.88 0 0 1 .311-.552 14.306 14.306 0 0 0 2.036-2.103 11.118 11.118 0 0 0 1.495-2.534c-1.127-2.388-2.79-4.29-4.99-5.708-2.198-1.417-4.621-2.126-7.267-2.126Zm-.166 17.383c-2.898 0-5.544-.787-7.94-2.36-2.397-1.573-4.31-3.626-5.74-6.158a1.613 1.613 0 0 1-.221-.49 2.173 2.173 0 0 1 .007-1.076c.048-.166.117-.33.207-.495a21.383 21.383 0 0 1 1.872-2.884A14.343 14.343 0 0 1 6.55 9.213L3.1 5.766a.827.827 0 0 1-.243-.602.877.877 0 0 1 .246-.604.85.85 0 0 1 1.225 0l23.211 23.21a.841.841 0 0 1 0 1.17.776.776 0 0 1-.597.274.835.835 0 0 1-.61-.26l-4.901-4.837c-.872.355-1.766.61-2.68.764a16.66 16.66 0 0 1-2.785.233ZM7.733 10.42a12.33 12.33 0 0 0-2.465 2.279 11.742 11.742 0 0 0-1.74 2.867C4.69 17.988 6.4 19.9 8.658 21.3c2.257 1.4 4.737 2.1 7.437 2.1.693 0 1.378-.032 2.053-.099a6.387 6.387 0 0 0 1.954-.512l-2.188-2.202c-.31.154-.628.256-.954.303a6.883 6.883 0 0 1-.994.071c-1.499 0-2.772-.524-3.821-1.573-1.05-1.05-1.574-2.323-1.574-3.822 0-.336.028-.666.085-.989a4.22 4.22 0 0 1 .29-.959L7.732 10.42Z"/>
</svg>
